app/img/step_arrow.svg

<svg width="163" height="163" viewBox="0 0 163 163" fill="none" xmlns="http://www.w3.org/2000/svg">
<path fill-rule="evenodd" clip-rule="evenodd" d="M91.5711 10.5179L70.5353 10.5179L70.5353 121.372L15.1654 66.0025L0.0573519 81.1106L65.9451 146.998L81.0532 162.106L96.1613 146.998L162.049 81.1105L146.941 66.0025L91.5711 121.372L91.5711 10.5179Z" fill="#F4B73E"/>
</svg>

<svg width="163" height="163" fill="none" xmlns="http://www.w3.org/2000/svg"><path fill-rule="evenodd" clip-rule="evenodd" d="M91.571 10.518H70.535v110.854l-55.37-55.37L.057 81.111l65.888 65.887 15.108 15.108 15.108-15.108 65.888-65.887-15.108-15.109-55.37 55.37V10.518z" fill="#F4B73E"/></svg>
